X:1
T:Joe Bowers
M:4/4
L:1/4
K:E
 B| B3/2 B/2 B B| e e2 B| c B G/2 B3/2| c3 E| E G c B| B G2- E| F EC/2-E/2 E|\
 E3||
